static/images/uploads/speakers.svg

<?xml version="1.0" encoding="UTF-8"?>
<svg width="56px" height="54px" viewBox="0 0 56 54" version="1.1" xmlns="http://www.w3.org/2000/svg" xmlns:xlink="http://www.w3.org/1999/xlink">
    <!-- Generator: Sketch 50.2 (55047) - http://www.bohemiancoding.com/sketch -->
    <title>Group</title>
    <desc>Created with Sketch.</desc>
    <defs>
        <polygon id="path-1" points="0 54 56 54 56 0 0 0"></polygon>
    </defs>
    <g id="-" stroke="none" stroke-width="1" fill="none" fill-rule="evenodd">
        <g id="Homepage" transform="translate(-1083.000000, -3672.000000)">
            <g id="highlights" transform="translate(141.000000, 3199.000000)">
                <g id="Group" transform="translate(942.000000, 473.000000)">
                    <path d="M0,0 L0,5.31384071 L0,48.6855728 L0,54 L26,54 L26,48.6855728 L26,5.31384071 L26,0 L0,0 Z M1.15807759,5.31501374 L24.8419224,5.31501374 L24.8419224,1.17361979 L1.15807759,1.17361979 L1.15807759,5.31501374 Z M1.15807759,47.5125395 L24.8419224,47.5125395 L24.8419224,6.48687397 L1.15807759,6.48687397 L1.15807759,47.5125395 Z M1.15807759,52.8269667 L24.8419224,52.8269667 L24.8419224,48.6855728 L1.15807759,48.6855728 L1.15807759,52.8269667 Z" id="Fill-1" fill="#413F47"></path>
                    <path d="M13.5,11.2608696 C15.8378781,11.2608696 17.7396884,13.163201 17.7396884,15.5009452 C17.7396884,17.8380592 15.8378781,19.7403907 13.5,19.7403907 C11.1627521,19.7403907 9.26031164,17.8386894 9.26031164,15.5009452 C9.2609418,13.163201 11.1627521,11.2608696 13.5,11.2608696 M13.5,21 C16.53294,21 19,18.5330813 19,15.5003151 C19,12.4675488 16.5323098,10 13.5,10 C10.4676902,10 8,12.4675488 8,15.5003151 C8.00063016,18.5330813 10.4676902,21 13.5,21" id="Fill-2" fill="#413F47"></path>
                    <path d="M13.4997113,43.8454224 C9.44931572,43.8454224 6.15461677,40.5502581 6.15461677,36.5 C6.15461677,32.4497419 9.44989303,29.1545776 13.4997113,29.1545776 C17.5495297,29.1545776 20.8453832,32.4497419 20.8453832,36.5 C20.8453832,40.5502581 17.550107,43.8454224 13.4997113,43.8454224 M13.4997113,28 C8.81312188,28 5,31.8129924 5,36.5 C5,41.1870076 8.81312188,45 13.4997113,45 C18.1868781,45 22,41.1870076 22,36.5 C22,31.8129924 18.1868781,28 13.4997113,28" id="Fill-4" fill="#413F47"></path>
                    <path d="M14,39.7088444 C12.506133,39.7088444 11.2911556,38.4932214 11.2911556,37 C11.2911556,35.5067786 12.506133,34.2911556 14,34.2911556 C15.493867,34.2911556 16.7088444,35.5067786 16.7088444,37 C16.7088444,38.4932214 15.493867,39.7088444 14,39.7088444 M14,33 C11.7940607,33 10,34.7940607 10,37 C10,39.2059393 11.7947063,41 14,41 C16.2052937,41 18,39.2059393 18,37 C18,34.7940607 16.2059393,33 14,33" id="Fill-6" fill="#413F47"></path>
                    <mask id="mask-2" fill="white">
                        <use xlink:href="#path-1"></use>
                    </mask>
                    <g id="Clip-9"></g>
                    <path d="M31.1580776,5.31378299 L54.8419224,5.31378299 L54.8419224,1.17302053 L31.1580776,1.17302053 L31.1580776,5.31378299 Z M31.1580776,52.826393 L54.8419224,52.826393 L54.8419224,48.685044 L31.1580776,48.685044 L31.1580776,52.826393 Z M31.1580776,47.5120235 L54.8419224,47.5120235 L54.8419224,6.48680352 L31.1580776,6.48680352 L31.1580776,47.5120235 Z M30,0.000586510264 L30,5.3143695 L30,48.6856305 L30,54 L56,54 L56,48.6856305 L56,5.31378299 L56,0 L30,0 L30,0.000586510264 Z" id="Fill-8" fill="#413F47" mask="url(#mask-2)"></path>
                    <path d="M43.5,11.2608696 C45.8378781,11.2608696 47.7396884,13.163201 47.7396884,15.5009452 C47.7396884,17.8380592 45.8378781,19.7403907 43.5,19.7403907 C41.1621219,19.7403907 39.2603116,17.8386894 39.2603116,15.5009452 C39.2603116,13.163201 41.1621219,11.2608696 43.5,11.2608696 M43.5,21 C46.53294,21 49,18.5330813 49,15.5003151 C49,12.4675488 46.53294,10 43.5,10 C40.46706,10 38,12.4675488 38,15.5003151 C38,18.5330813 40.46706,21 43.5,21" id="Fill-10" fill="#413F47" mask="url(#mask-2)"></path>
                    <path d="M42.5,43.8454224 C38.4497419,43.8454224 35.1545776,40.5502581 35.1545776,36.5 C35.1545776,32.4497419 38.4497419,29.1545776 42.5,29.1545776 C46.5502581,29.1545776 49.8454224,32.4497419 49.8454224,36.5 C49.8454224,40.5502581 46.5496808,43.8454224 42.5,43.8454224 M42.5,28 C37.8135697,28 34,31.8129924 34,36.5 C34,41.1870076 37.8135697,45 42.5,45 C47.1864303,45 51,41.1870076 51,36.5 C51,31.8129924 47.1864303,28 42.5,28" id="Fill-11" fill="#413F47" mask="url(#mask-2)"></path>
                    <path d="M43,39.7088444 C41.5067786,39.7088444 40.2911556,38.4932214 40.2911556,37 C40.2911556,35.5067786 41.5067786,34.2911556 43,34.2911556 C44.4932214,34.2911556 45.7088444,35.5067786 45.7088444,37 C45.7088444,38.4932214 44.4932214,39.7088444 43,39.7088444 M43,33 C40.7940607,33 39,34.7940607 39,37 C39,39.2059393 40.7940607,41 43,41 C45.2059393,41 47,39.2059393 47,37 C47,34.7940607 45.2059393,33 43,33" id="Fill-12" fill="#413F47" mask="url(#mask-2)"></path>
                </g>
            </g>
        </g>
    </g>
</svg>

<svg width="56" height="54" xmlns="http://www.w3.org/2000/svg" xmlns:xlink="http://www.w3.org/1999/xlink"><defs><path id="a" d="M0 54h56V0H0z"/></defs><g fill="none" fill-rule="evenodd"><path d="M0 0v54h26V0H0zm1.158 5.315h23.684V1.174H1.158v4.141zm0 42.198h23.684V6.487H1.158v41.026zm0 5.314h23.684v-4.141H1.158v4.141z" fill="#413F47"/><path d="M13.5 11.26a4.245 4.245 0 0 1 4.24 4.24 4.245 4.245 0 0 1-4.24 4.24 4.245 4.245 0 0 1-4.24-4.24 4.246 4.246 0 0 1 4.24-4.24m0 9.74c3.033 0 5.5-2.467 5.5-5.5 0-3.032-2.468-5.5-5.5-5.5A5.507 5.507 0 0 0 8 15.5c0 3.033 2.468 5.5 5.5 5.5M13.5 43.845c-4.05 0-7.345-3.295-7.345-7.345s3.295-7.345 7.345-7.345 7.345 3.295 7.345 7.345-3.295 7.345-7.345 7.345M13.5 28C8.813 28 5 31.813 5 36.5c0 4.687 3.813 8.5 8.5 8.5 4.687 0 8.5-3.813 8.5-8.5 0-4.687-3.813-8.5-8.5-8.5" fill="#413F47"/><path d="M14 39.709A2.712 2.712 0 0 1 11.291 37 2.712 2.712 0 0 1 14 34.291 2.712 2.712 0 0 1 16.709 37 2.712 2.712 0 0 1 14 39.709M14 33c-2.206 0-4 1.794-4 4s1.795 4 4 4 4-1.794 4-4-1.794-4-4-4" fill="#413F47"/><mask id="b" fill="#fff"><use xlink:href="#a"/></mask><path d="M31.158 5.314h23.684V1.173H31.158v4.14zm0 47.512h23.684v-4.141H31.158v4.141zm0-5.314h23.684V6.487H31.158v41.025zM30 .001V54h26V0H30z" fill="#413F47" mask="url(#b)"/><path d="M43.5 11.26a4.245 4.245 0 0 1 4.24 4.24 4.245 4.245 0 0 1-4.24 4.24 4.244 4.244 0 0 1-4.24-4.24 4.245 4.245 0 0 1 4.24-4.24m0 9.74c3.033 0 5.5-2.467 5.5-5.5 0-3.032-2.467-5.5-5.5-5.5a5.506 5.506 0 0 0-5.5 5.5c0 3.033 2.467 5.5 5.5 5.5M42.5 43.845c-4.05 0-7.345-3.295-7.345-7.345s3.295-7.345 7.345-7.345 7.345 3.295 7.345 7.345-3.295 7.345-7.345 7.345M42.5 28c-4.686 0-8.5 3.813-8.5 8.5 0 4.687 3.814 8.5 8.5 8.5s8.5-3.813 8.5-8.5c0-4.687-3.814-8.5-8.5-8.5" fill="#413F47" mask="url(#b)"/><path d="M43 39.709A2.712 2.712 0 0 1 40.291 37 2.712 2.712 0 0 1 43 34.291 2.712 2.712 0 0 1 45.709 37 2.712 2.712 0 0 1 43 39.709M43 33c-2.206 0-4 1.794-4 4s1.794 4 4 4 4-1.794 4-4-1.794-4-4-4" fill="#413F47" mask="url(#b)"/></g></svg>
